X: 140
M: C
L: 1/8
K: Em
(G>F) | E2 (B>c) B2 e2 | ^d3 ^c B2 =c2 |
^d3 e f2 (B>c) | B2 f2 (gfe) ^d |
e6 :: (ef) | {ef}g2 (fe) ^d2 (cB) |
(e^de) f g2 B2 | (AcB) A ( GBA) G |
(G2 F2) z2 (ef) | (gfg) e (^d^cd) B |
(e>^d)e f g2 B2 | TA3 G (A2 B) ^d |
e6 :|

